X:1
T:Title
%%score { 1 | 2 }
L:1/8
M:4/4
K:D
V:1 treble nm="Grand Piano"
V:2 bass 
V:1
 z4 z2[Q:1/4=94] DE | FF[DF][CE] EDDF | [FA][FA][FA][EG] [EG][DF][DF][FA] | %3
 [Fd][Fd][Gd][GB] [GB][FA][FA][DF] | [DF][CE][CE][DF] [CE]2 DE | FF[DF][CE] EDDF | %6
 [FA][FA][FA][EG] [EG][DF][DF][FA] | [Fd][Fd][Gd][GB] [GB][FA]DE |[M:3/4] FA [CE]>[CF] D2 | %9
[M:1/4] F[FA] |[M:4/4] [Fd]2 [Fd]>[GB] [FA]2 [DF][FA] | [Fd][Ge][Fd][GB] [GB][FA][DF][DF] | %12
 [CE][CE][EA]B ccee | [^Ge][Gd][Gc][GB] A2 AA | [Fd][Fd][Fd][GB] [GB][FA][DF][FA] | %15
 [Fd][Fd][Fd][GB] [GB][FA][DF][DF] | [CE][DF][EG][CE] [DF][FA][Ad][Ad] |[M:3/4] ee dc [Fd]2 |] %18
V:2
 z4 z2 [D,F,][D,G,D] | [D,A,D][D,A,D][A,,A,][A,,G,] [D,G,A,][D,F,A,][D,F,A,][D,A,D] | %2
 [D,A,][D,A,][A,,A,][A,,A,] [D,A,][D,A,][D,A,][D,A,] | %3
 [D,A,][D,A,][G,B,][G,D] [D,D][D,D][D,D][D,A,] | %4
 [A,,A,][A,,A,][A,,A,][A,,A,] [A,,A,]2 [D,F,][D,G,D] | %5
 [D,A,D][D,A,D][A,,A,][A,,G,] [D,G,A,][D,F,A,][D,F,][D,A,D] | %6
 [D,A,][D,A,][A,,A,][A,,A,] [D,A,][D,A,][D,A,][D,A,] | %7
 [D,A,][D,A,][G,B,][G,D] [D,D][D,D][F,A,][K:treble][G,B,D] | %8
[M:3/4] [A,D][A,F][K:bass] [A,,G,]>[A,,A,] [D,F,]2 |[M:1/4] [D,A,D][D,A,] | %10
[M:4/4] [D,A,]2 [D,A,]>[D,D] [D,D]2 [D,A,][D,A,] | [D,A,][D,A,][D,A,][D,D] [D,D][D,D][D,A,][D,A,] | %12
 [A,,A,][A,,A,][C,A,][E,^G,E] [A,E][A,E][A,CE][A,CE] | %13
 [E,B,][E,B,][E,E][E,D][K:treble] [A,C]2 [A,^G][A,G] | %14
 [D,A,][D,A,][D,A,][D,D] [D,D][D,D][D,A,][D,A,] | [D,A,][D,A,][D,A,][D,D] [D,D][D,D][D,A,][D,A,] | %16
 [A,,A,][A,,A,][A,,A,][A,,A,] [D,A,][D,D][F,A,][F,A,] | %17
[M:3/4][K:treble] [G,B,G][G,B,G] [A,F][K:bass][A,E] [D,A,]2 |] %18

